X: 451
T:Giga
M:6/8
L:1/8
Q:3/8=112
R:Jig
N:Posted to the woodenflute mailing list October 2001
N:transcribed from recorder version in Aminor
Z:Clive Catterall
K:Gminor
d|(ga)^f gGd|(ab)g ad^f|(bc')a bdg|(c'd')b c'da|bGa cag|a3 d2 d|
(G=B)d (Bd)g|(c=e)g (eg)c'|(FA)c (Ac)f|(Bd)f (df)b|(db)_a (eg)d|cc'b (fa)e|
dd'c' (gb)f|(ec')a bec'|(Tc'3c'2) (b/2c'/4d'/4)|(d3d2)::a|(^fa)d (fa)c|(Bd)g
(bd')g|
(=eg)c (eg)B|(Ac)f (ac')f|(Bd)f (bd')f|(c=e)g (c'g)b|(ac)f Gf=e|f3 F2
A|(ce)B (Ae)G|
(Fe)G (Ae)F|(Bb)c (db)B|(eg)d (eg)B|(cc')d (=ec')c|(fa)c (fa)e|(db)B (eb)B|
(fb)B (gb)B|(db)_a (ec')b|(fb)a B2 d'|(bd')e' (bd')e'|(ge')d'
(ge')d'|(ac')d' (ac')d'|
(fd')c' (dd')c'|(gb)c' (gb)c'|(ec')b (cc')b|(fa)b (fa)b|(db)a (Bb)a|(eg)a
(eg)a|
(ca)g (Aa)g|(d^f)g (d^f)g|(Bg)a (Gg)f|(ca)b (Aa)g|(db)c' (Bb)a|(ca)b
(dg)^f|(G3G2):|
<end>
<start>
